X: 1
T:The Thief of Lochaber  "CYMRU"
M:6/8
L:1/8
Q:80
C:3rd & 4th Parts by D. MacLeod
S:Jig
K:HP
|: e|
{g}d{GAG}A2{g}A{d}A{e}A|
{g}fag{fg}f2e|
{g}dB{G}B{gBG}B2e|  !
{g}dB{G}B{gBd}B2{e}G| |
{g}d{GAG}A2{g}A{d}A{e}A|
{g}fag{fg}f2e|  !
{g}fd{G}d{gdG}d2e|
{g}fd{G}d{gdG}d2:| |:
f|  !
{g}ABd{g}fd{G}d|
ad{G}d{g}fd{G}d|
{g}A{d}ce{g}ec{G}c|  !
g{a}c{G}c{g}ec{G}c| |
{g}ABd{g}fd{G}d|
ad{G}d{g}fd{G}d|  !
{g}Bcdaf{g}e|
{g}fd{G}d{gdG}d2:| |:
g|  !
{g}Bd{G}d{g}A{d}A{e}A|
{g}faA{gfg}f2e|
{g}Bd{G}d{g}A{d}A{e}A|  !
{g}dB{G}B{gBd}B2{e}G| |
{g}Bd{G}d{g}A{d}A{e}A|
{g}faA{gfg}f2e|  !
{g}fag{fg}f2e|
{g}fd{G}d{gdG}d2:| |:
g|  !
{a}fa{g}aA{d}A{e}A|
af{e}f{gfg}f2e|
{g}fa{g}aA{d}A{e}A|  !
dB{G}B{gBd}B2{e}G|1 |
{a}fa{g}aA{d}A{e}A|
af{e}f{gfg}f2e|  !
{g}fag{fg}f2e|
{g}fd{G}d{gdG}d2:|2 |
{g}Bd{G}d{g}A{d}A{e}A|  !
{g}faA{gfg}f2e|
aA{GAG}A{gfg}f2e|
{g}fd{G}d{gdG}d2|]  !
